brandFactory_export/2.Regular/Flecha adelante_2Regular.svg

<?xml version="1.0" encoding="UTF-8"?>
<svg width="24px" height="24px" viewBox="0 0 24 24" version="1.1" xmlns="http://www.w3.org/2000/svg" xmlns:xlink="http://www.w3.org/1999/xlink">
    <title>2.Regular/Flecha adelante_2Regular</title>
    <g id="Symbols" stroke="none" stroke-width="1" fill="none" fill-rule="evenodd">
        <g id="2.Regular/Flecha-adelante_2Regular" fill="#5CB615" fill-rule="nonzero">
            <path d="M23.5294118,12.1310924 C23.6302521,11.8857143 23.6302521,11.6134454 23.5294118,11.3680672 C23.5058824,11.307563 23.4621849,11.2638655 23.4319328,11.2134454 C23.3983193,11.1596639 23.3747899,11.102521 23.3277311,11.0521008 L13.2134454,0.349579832 C12.8302521,-0.0571428571 12.1882353,-0.0739495798 11.7815126,0.309243697 C11.3747899,0.692436975 11.3579832,1.33445378 11.7411765,1.74117647 L20.2420168,10.7327731 L0.994957983,10.7327731 C0.43697479,10.7563025 -6.9388939e-18,11.2268908 0.0201680672,11.7882353 C0.0403361345,12.3159664 0.463865546,12.7428571 0.994957983,12.7630252 L20.2420168,12.7630252 L11.5563025,21.9462185 C11.1731092,22.3529412 11.189916,22.994958 11.5932773,23.3781513 C12,23.7613445 12.6420168,23.7445378 13.0252101,23.3411765 L23.3277311,12.4436975 C23.3747899,12.3966387 23.394958,12.3361345 23.4319328,12.2823529 C23.4621849,12.2319328 23.5058824,12.1882353 23.5294118,12.1310924" id="Path"></path>
        </g>
    </g>
</svg>

<svg width="24" height="24" viewBox="0 0 24 24" xmlns="http://www.w3.org/2000/svg"><path d="M23.53 12.131a1 1 0 000-.763c-.024-.06-.068-.104-.098-.155-.034-.053-.057-.11-.104-.16L13.213.35a1.014 1.014 0 00-1.472 1.391l8.501 8.992H.995a1.015 1.015 0 000 2.03h19.247l-8.686 9.183a1.017 1.017 0 00.037 1.432 1.017 1.017 0 001.432-.037l10.303-10.897c.047-.047.067-.108.104-.162.03-.05.074-.094.097-.15" fill="#5CB615" fill-rule="nonzero"/></svg>
